X:1
T:Concerto di mandolino a solo con Violini e Basso
T:Concerto di mandolino a solo con Violini e Basso
T:Domenico Caudioso (17??-?) Gimo 58
T:by Mutopia-2013/04/10-322 - public domain
T:by Mutopia-2013/04/10-322 - public domain
T:by Mutopia-2013/04/10-322 - public domain
T:by Mutopia-2013/04/10-322 - public domain
T:by Mutopia-2013/04/10-322 - public domain
T:by Mutopia-2013/04/10-322 - public domain
T:by Mutopia-2013/04/10-322 - public domain
T:by Mutopia-2013/04/10-322 - public domain
T:by Mutopia-2013/04/10-322 - public domain
T:by Mutopia-2013/04/10-322 - public domain
T:by Mutopia-2013/04/10-322 - public domain
T:by Mutopia-2013/04/10-322 - public domain
C:Domenico Caudioso (17??-?)
C:Gimo 58
Z:by Mutopia-2013/04/10-322 - public domain
%%score [ ( 1 2 ) ( 3 4 ) ( 5 6 ) 7 ]
L:1/8
Q:1/4=100
M:4/4
K:G
V:1 treble nm="Mandolino"
V:2 treble 
V:3 treble nm="Violino I"
V:4 treble 
V:5 treble nm="Violino II"
V:6 treble 
V:7 bass nm="Violoncello"
V:1
"^Allegro" [G,DBg]B/c/ dd{/e} d(c/B/){/d} c(B/A/) | [G,DBg]B/c/ dd{/e} d(c/B/){/d} c(B/A/) | %2
 GG, z d (e/c/B/c/) (e/c/B/c/) | eg z g z gec | d/B/A/B/ d/B/A/B/ dg z g | %5
 z gdB c/(c/B/c/) c/(c/B/c/) | ca z a z acA | B/G/A/B/ c/d/e/f/ g3/2(3b/4a/4g/4 gg | %8
 g3/2(3b/4a/4g/4 gg a3/2(3c'/4b/4a/4 aa | a3/2c'/4b/4 ag f/e/d z/ d/e/f/ | gd'bg ec'af | %11
 gd'/b/ g=f ec'/a/ g^f | g3/2f/4e/4 d^c g3/2f/4e/4 dc | c3/2B/4c/4 ac B3/2A/4B/4 gB | %14
 A3/2B/4c/4 BB B/G/A/B/ c/d/e/f/ | !//!g2 !//!g2 !//!g2 g/g/b/b/ | !//!a2 !//!a2 !//!a2 !//!a2 | %17
 g/b/a/g/ f/e/d/c/ B3/2A/4G/4 c^c | d2 B,d CeD[DAf] | [DBg] (3B,/C/D/ G,2"^Solo" [G,Bd]2 [G,ce]2 | %20
 [G,Bd][G,B]/[G,B]/ [G,B][G,B] [G,Bd]2 [G,ce]2 | [G,Bd][G,B]/[G,B]/ [G,B][G,B] DEDC | %22
 dedc de/d/ cB | BA z d [G,Bd]/d/d/d/ [G,Bd]/d/d/d/ | [G,ce]/e/e/e/ [G,ce]/e/e/e/ [G,Bd]2 [G,Bd]2 | %25
 [G,ce]2 [G,ce]2 [^ce]2 [ce]2 | [Adf]2 [Adf]2 [A^ce]2 [Ace]2 | [Adf]2 [Adf]2 d/e/f/g/ aa | %28
 B/a/a/a/ ^c/a/a/a/ d/e/f/g/ aa | B/a/a/a/ ^c/a/a/a/ d/e/f/g/ aa | %30
 a/g/f/e/ d/=c/B/c/ [A,Fc]2 [G,GB]2 | e/f/^g/a/ bb ^c/b/b/b/ ^d/b/b/b/ | %32
 e/f/^g/a/ bb ^c/b/b/b/ ^d/b/b/b/ | e/f/^g/a/ bb b/a/g/f/ e/d/^c/d/ | %34
 [B,^Gd]2 ^c z d/(A/B/A/) d/(A/B/A/) | e/(A/B/A/) e/A/B/A/{/g} fe/d/{/f} ed/^c/ | da z A Bg z ^c | %37
 d/f/a z =c Bg z ^c | d/e/=f/e/ d/c/_B/A/ B/c/d/c/ B/A/G/F/ | G/A/_B/A/ G/=F/E/D/ AA, z e | %40
 A/^c/e/e/ A/c/e/e/ [df]4 | [^cg]4 [df]4 | [d=f]4 [de]4 | [^ce]4 d/d/c/B/ A/G/F/E/ | %44
 F/D/E/F/ G/A/B/!courtesy!^c/ d/d/e/f/ g/a/b/^c'/ | d'afd A/(A/B/A/) G/((G/F/E/)) | %46
 F/D/E/F/ G/A/B/^c/ d/d/e/f/ g/a/b/^c'/ | d'afd A,2!f!{/a} gf/e/ | e4 df/g/ aa | %49
{/b} ag/f/4a/4{/a} gf/e/ ff/g/{/b} ag/f/ | gf/e/ fe/d/ ^cA{fg} aa |{/b} ag/f/{/a} gf/e/ fd Da | %52
 b/g/f/g/ b/g/f/g/ ^degb | a/f/e/f/ a/f/e/f/ ^cdfa | g/g/f/g/ g/f/e/d/ ^c/d/e/f/ g/f/g/e/ | %55
 f/g/a/g/ f/e/d/^c/ d/e/f/e/ d/c/B/A/ | B/^c/d/c/ B/A/G/F/ G/A/B/G/ AA, | D2 [DAf]a [DBg]b[E^ce]a | %58
 [DAf][DA]/>[DA]/ [DA][DA] [DAf]2 z2 | [Dfa]2 [Dgb]2 [Dfa][Df]/>[Df]/ [Df][Df] | %60
 [Dfa]2 [Dgb]2 [Dfa][Df]/>[Df]/ [Df][Df] | abag abag | ab/a/ gf fe z a | %63
 B/^c/^d/e/ f/g/a/f/ g/b/a/g/ f/e/d/e/ | B/^c/!courtesy!^d/e/ f/g/a/f/ g/b/a/g/ f/e/^d/e/ | %65
 B/^c/^d/e/ f/g/a/f/ g/e/B/G/ Ee | A/B/^c/d/ e/f/g/e/ f/a/g/f/ e/d/^c/d/ | %67
 A/B/^c/d/ e/f/g/e/ f/a/g/f/ e/d/c/d/ | A/B/^c/d/ e/f/g/e/ f/e/d ff | b/a/g/f/ ee a/g/f/e/ dd | %70
 g/f/e/d/ ^cB ^AFAc | d^cef g f2 e | d/d/^c/B/ c^A B2 g/g/f/^e/ | ^fF f/f/e/^d/ =eE e/e/=d/^c/ | %74
 dD d/d/^c/B/ c/d/e/f/ gB |{B} ^A2 z B =c/d/e/f/ g^A | B/^c/d z B =c/d/e/f/ g^A | %77
 B/^c/d z B =c/e/d/^c/ B^A | Bg f/e/d/^c/ dg f/e/d/c/ | d/d/^c/B/ c/c/B/^A/ BbDb | EbF^a G,2 z2 | %81
 [DBg]B/c/ dd{/e} dc/B/{/d} cB/A/ | [DBg]B/c/ dd{/E} DC/B,/{/D} CB,/A,/ | %83
 GG, z d e/(c/B/c/) e/(c/B/c/) | eg z g z gec | d/(B/A/B/) d/(B/A/B/) dg z g | %86
 z gdB c/(c/B/c/) c/(c/B/c/) | ca z a z acA | B/d/g/f/ e/d/c/B/ BA z d | _BG_e^c dD z A | %90
 =FDdB cC z c | c/_e/d/c/ cc f>g ac | _Bg z ^c da z =c | _Bg z ^c dA_B^F | GD^D^C =DdDd | %95
 [DAf]2 z2"^Solo" [G,Bd]2 [G,ce]2 | [Bd]G,[ce]G, dedc | dedc [G,Bd]2 z2 | %98
 [Dfa]2 [Dgb]2 [fa]D[gb]D | fbag abag | [Dfa]2 z d gdBG | e/g/f/e/ e/g/f/e/ f/g/a/b/ c'c | %102
 d/f/e/d/ d/f/e/d/ e/f/g/a/ bB | c/e/d/c/ c/e/d/c/ d/e/f/g/ aA | B/d/g/f/ e/d/c/B/ BAdB, | %105
 CefD EgaA | b/g/d/B/ GB, CeDf | EgFa b/a/g/f/ g/f/g/a/ | b/a/g/f/ g/f/g/a/ b/b/a/g/ f/f/e/d/ | %109
{/c} BA/G/{/B} AG/F/ B/A/G/F/ G/F/G/A/ | B/A/G/F/ G/F/G/A/ B/b/a/g/ f/e/d/c/ | BgDf g2 z d | %112
 _eg z e dg z d | ca_Bg BD z d | _eg z e dg z _B | A/_e/d/c/ _BA G2 g/=b/a/g/ | %116
 f/a/g/f/ e/g/f/e/ dD c/e/d/c/ | B/d/c/B/ A/c/B/A/ GG,BG, | dG,gb D2 c/e/d/c/ | %119
 B/d/c/B/ A/c/B/A/ GG,BG, | dG,gb D2 c/e/d/c/ | B/d/c/B/ A/c/B/A/ G/F/E/D/ C/B,/A,/G,/ | %122
 [CEA]2 [DAf]2 [DBg] B/c/ dd |{/e} dc/B/{/d} cB/A/ BB/c/{/e} dd |{/e} dc/B/{/d} cB/A/ BG G,2 | %125
 ec G,2 dB G,2 | caBg A/(d/^c/d/) D2 | g3/2(3b/4a/4g/4 gg g3/2(3b/4a/4g/4 gg | %128
 a3/2(3c'/4b/4a/4 aa a3/2c'/4b/4 ag | (3f/e/d/d z/ d/e/f/ gd'bg | ec'af gd'/b/ g=f | %131
 ec'/a/ g^f g3/2f/4e/4 d^c | g3/2f/4e/4 d^c dD z d | =c3/2B/4c/4 ac B3/2A/4B/4 gB | %134
 A3/2B/4c/4 BA G/A/B/c/ d/e/f/g/ | B/c/d/e/ f/g/a/b/ D2 [DAf]2 | %136
 [G,DBg][G,D]/[G,D]/ [G,D][G,D] [G,DBg]2 !fermata!z2 |] %137
[K:C][M:2/2][Q:1/4=80]"^Largo" (6:4:6c'gecGE (3CCC(3CCC | (6:4:6c'gecAF (3CCC(3CCC | %139
 (6:4:6c'gecGE (3CCC(3CCC | (6:4:6fdBFDB, (3G,G,G,(3G,G,G, | (3CCC(3ccc (3eee(3ggg | %142
 (3ddd(3ggg (3bbb(3ddd | (3ccc(3^fff (3aaa(3ccc | (3BGG(3G,GG (3G,=FF(3G,FF | %145
 (3G,EE(3G,EE (3G,DD(3G,DD | (3G,CC(3G,CC (3G,B,B,(3G,B,B, | G,2 z2 (3gfe(3dc_B | %148
 (3A^GA(3AGA (3A=Bc(3def | (6:4:6egfedc (6:4:6dfedcB | c3 _e/d/ c>_B_A>G | ^F3 d/c/ =B>=AG>=F | %152
 (3EG_B(3Acf (3egc(3df=B | (3ceg(3gee (3ecc(3cGG | (3GEE(3ECC (3CCC(3CCC | [A,Ece]4 !fermata!z4 | %156
 (6:4:6cdee^fg (6:4:6gfedcB |{/d} (3cBc{/d}(3cBc{/a} (3gfe(3dc_B | (3A^GG(3A=Bc (3def{/g}(3fed | %159
{/d} (3cBc{/d}(3cBc (3cde(3edc | (3d^fd (3dfa (3gba (3g^fe | (3cec (3ceg (3^fag (3fcA | %162
 [G,DB]2 (3Bcd (3de=f{/g}(3fe^d | (3e^de(3e^fg (3aba(3gfg |{/g} (3^fed D2 (3gdB [G,D]2 | %165
 (3a^fc D2 (3bgd G,2 | (3c'a^f(3cA^F (3DED(3CB,C | B,2 (3Bcd (3e^fg(3ABc | (3de^f(3GAB (3ced(3cBA | %169
 (3[Bg][Bg][Bg](3[Bg][Bg][Bg] (3[Bg][Bg][Bg](3[Bg][Bg][Bg] | (3[Bg]ba(3g^fe (3ded(3cBc | %171
 (6:4:6Bdc{/c}BAG (6:4:6AcB{/B}AG^F | (3[Bdg]dB(3GDB, [G,DBg]2 [G,DBg]2 | %173
 (3gec(3GEC [G,Ece]2 [G,Ece]2 | (3gdB(3GDB, [G,DBg]2 [G,DBg]2 | (3c'a^f(3cA^F [DAf]2 [DAf]2 | %176
 [DBg]2 (3Bcd (3e^fg(3ABc | (3de^f(3GAB (3cde(3^FGA | (3Bcd(3de^f (3gfe(3dcB | (3BGB A2 z4 | %180
 (3_BBB(3BBB (3^ccc(3ccc | (3ddd(3ddd (3AAA(3AAA | (3AAA(3AAA (3GGG(3EEE | %183
 (3Ad^c (3dA^F D2 !fermata!z2 | (3gdc(3BAG [G,Ece]2 (3g^fe | [DBg]2 (3gdB [Dca]2 (3cBA | %186
 (3Bdc(3BAG (3eg^f(3gfe | (3de!courtesy!^f(3gab (3cag(3^fdc | (3BGD G,2 z4 | c2 (3_edc d2 (3fed | %190
 _e2 (3efg (3_agf(3edc | d2 (3d_ef (3gfe(3dc=B | c2 (3cd_e (3fed(3dc=B | B2 (3dcB{/B} c2 (3_edc | %194
{^c} d2 (3f_ed (3efg(3_agf | (3f_ed(3dc=B (3BAG G,2 | (3[Ece]e[Ece](3eee (3[Ece]ee(3[Ece]ee | %197
 (3EGc(3Acf (3egc(3dfB | (3cBA(3AG^F (3cBA(3AGF | (3dcB(3de=f (3fed(3dcB | %200
 (6:4:6egfedc (6:4:6efedcB | (3cec(3cGE (3CCC(3CCC | (3c'af(3cAF (3CCC(3CCC | %203
 (3c'ge(3cGE (3CCC(3CCC | (3fdB(3FDB, (3DDD(3DDD | [CE]2 (3ge_B (3Afe(3dc=B | c3 _e/d/ c>_B_A>G | %207
 ^F3 d/c/ =B>=AG>=F | (3EG_B(3Acf (3egc(3df=B | (3ceg(3gee (3ecc(3cGG | %210
 (3GEE(3[G,E][G,E][G,E] (3[G,E][G,E][G,E](3[G,E][G,E][G,E] | [G,Ece]4 !fermata!z4 |] %212
[K:G][M:2/4][Q:1/4=120]"^Allegro" d2{ef} g2 |{/g} f/e/d z e | cA Dc | B/c/d z e | cA Dc | %217
 B/A/G z d | (b/4a/4g3/2) (g/4f/4e3/2) | (a/4g/4f3/2) (f/4e/4d3/2) | (g/4f/4e3/2) (f/4e/4d3/2) | %221
 ^c/4B/4A3/2 A,2 | g/4f/4e3/2 ^c/4B/4A3/2 | f/4g/4a3/2 z A | Bg/>d/{/d} ^c3/2B/4c/4 | d2 z b | %226
 [Dc]a [DB]g | [DAf]2 z b | [Dc]a [DB]g | [DAf]2 z d | g3/2f/4e/4 d^c | c2 a2 | B2 g2 | %233
 A3/2B/4c/4 BA | g3/2f/4e/4 d^c | =c2 a2 | B2 g2 | (A3/2B/4c/4) BA | Gg/a/ ga | bg/a/ ga | %240
 ba/g/ f/e/d/c/4c/4 |{/c} BA/G/4B/4{/B} AG/F/ | Gg/a/ ga | bg/a/ ga | ba/g/ f/e/d/c/4c/4 | %245
{/c} BA/G/4B/4{/B} AG/F/ | G2 [DBg]2 | [Eca]2 [DAf]2 | [DBg]2 z2 | d2 g2 | fd Dd | ec Ce | dB G,d | %253
 cA A,c | BG G,2 | eg z e | dg z d | ca Bg | fd D2 | de =fe | dc BA | ^GA BA | ^G=F ED | %263
 [CEA]2 Bd | cA B^G | A2 A,2 | cd ed | cB AG | FG AG | FE DC | B,2 Bd | cA DF | G2 Bd | G,2 Bd | %274
 G,2 ^ce | A,2 ^ce | [A,A]2 df | D2 df | e2 ^ce | A2 eg | f2 .a/(a/g/f/) | %281
 .b/(b/a/g/) .a/(a/g/f/) | .g/(g/f/e/) .f/(f/e/d/) | .e/(e/d/^c/) .d/(d/c/B/) | ^c/B/A A,2 | %285
 ge ^cA | fd Ac | Be fg | fa A^c | d2 D2 | ge ^cA | fd Ac | B^c d^d | ef ga | b2 a/g/f/e/ | %295
 fd A,^c | d2{bc'} d'2 | ^c'/4b/4a3/2 z b | ge Ag | f/4g/4a3/2 z b | ge Ag | f/e/d z f | e2 a2 | %303
 a2 f2 | e2 a2 | a2 f2 | eA B^c | d2 Ed/>d/ | ^c2 Ec | BA B^G | A2 z2 | d2 d'2 | ^c'a Aa | bg G,b | %314
 af Da | ge Ag | fd DA | Bd z B | Ad z A | Ge Fd | F2 E2 | fg aa | a2 gf | f/g/f/g/ aa | ge f^d | %325
 e2 z2 | ef gg | g2 fe | e/f/e/f/ gg | g2 fe | fd e^c | d2 z f | b/a/g/f/ eg | a/g/f/e/ df | %334
 g/f/e/d/ ^cB | _BF B^c | e_B ^ce |{/a} g2 fe |{/a} g2 fe | ^AF A^c | e^A ^ce |{/a} g2 fe | %342
{/a} g2 fe | dB ^c^A | B2 d2 | e2 ^e2 | f2 g2 | fe d^c | d2{^cd} g2 | d^c B^A | B2 G2 | E2 F2 | %352
 B,2 z2 | d2{ef} g2 | f/e/d z e | cA Dc | B/4c/4d3/2 z e | cA Dc | B/A/G z d | _eg z ^c | %360
 d=f z =B | c_e z A | _Bd z B | _e/d/c/!courtesy!_B/ AG | [DAf]2 [D_Bg]2 | [DAf]d _BG | %366
 [DAf]2 [D_Bg]2 | [DAf]d _BG | [DAf]2 [D_Bg]2 | [DAf]2 !fermata!z2 | d2{ef} g2 | f/e/d Dd | ec Ce | %373
 dB G,d | cA Dc | BG G,d | eg z e | dg z d | ca Bg | A2 z2 | d/c/B/A/ G=f | e=f z d | e=f z d | %383
 e/d/c/B/ c z | e/d/^c/B/ Ag | ^fg z e | fg z e | f/e/d z d | g/d/c/B/ d=f | e/g/^f/e/ ee | %390
 ac'/b/ c'e | d/f/e/d/ dd | gb/a/ bd | c/e/d/c/ cc | fa/g/ ac | Bd gB | B2 A2 | gd BG | %398
 e/g/f/e/ e/g/f/e/ | a/b/c'/b/ a/g/f/e/ | d/f/e/d/ d/f/e/d/ | g/a/b/a/ g/f/e/d/ | %402
 c/e/d/c/ c/e/d/c/ | f/g/a/g/ f/e/d/c/ | B/d/e/f/ gB | BA z d | _ec ^fd | gG z d | _ec ^fd | %409
 gG z d | ^dc z f | g3/2=f/4_e/4 d^c | d2 =ca | a2 =Bg | Ae dF | G_B Ac | _B_e d^F | G_B Ac | %418
 _BG A^F | G_B Ac | _B_e d^F | G2 g/f/=e/d/ | e2 e/d/c/B/ | c2 c/B/A/G/ | Fd g/e/d/c/ | Bg Df | %426
 [DBg]2 z e | cA Dc | B/c/d z e | cA Dc | (B/4c/4)d3/2 (d/4c/4)B3/2 | (e/4f/4)g3/2 (A/4B/4)c3/2 | %432
 d/4e/4f3/2 G/4A/4B3/2 | c/4d/4e3/2 F/4G/4A3/2 | Bg/a/ ga | bg/a/ ga | ba/g/ f/e/d/c/ | Bg Cf | %438
 gg/a/ ga | bg/a/ ga | ba/g/ f/e/d/c/ | Bg Df | G2 [DBg]2 | [Eca]2 [DAf]2 | [DBg]2 dB | G2 DB, | %446
 [G,DBg]4 |] %447
V:2
 x4 D2 D2 | x4 D2 D2 | x8 | x8 | x8 | x8 | x8 | x8 | x8 | x8 | x8 | x8 | x8 | x8 | x8 | x8 | x8 | %17
 x8 | x8 | x8 | x8 | x4 B,CB,A, | BcBA Bc/B/ AG | GF x6 | x8 | x4 A2 A2 | x8 | x8 | x8 | x8 | x8 | %31
 x8 | x8 | x8 | x2 AA x4 | x8 | x8 | x8 | x8 | x8 | x4 A4 | E4 D4 | ^G4 A4 | G4 x4 | x8 | x8 | x8 | %47
 x8 | x8 | A4- A4 | A4 x2 AA | A4 A x3 | x8 | x8 | x8 | x8 | x8 | x8 | x8 | x8 | x8 | fgfe fgfe | %62
 fg/f/ ed d^c x2 | x8 | x8 | x8 | x8 | x8 | x8 | x8 | x8 | x8 | x8 | x8 | x8 | x8 | x8 | x8 | x8 | %79
 x8 | x8 | x4 D4 | x4 D4 | x8 | x8 | x8 | x8 | x8 | x8 | x8 | x8 | x8 | x8 | x8 | x8 | x8 | %96
 x4 BcBA | BcBA x4 | x8 | dgfe fgfe | x8 | x8 | x8 | x8 | x8 | x8 | x8 | x8 | x8 | x8 | x8 | x8 | %112
 x8 | x8 | x8 | x8 | x8 | x8 | x8 | x8 | x8 | x8 | x8 | D4 D4 | D4 x4 | x8 | x8 | x8 | x8 | x8 | %130
 x8 | x8 | x8 | x8 | x8 | x8 | x8 |][K:C][M:2/2] x8 | x8 | x8 | x8 | x8 | x8 | x8 | x8 | x8 | x8 | %147
 x8 | x8 | x8 | x8 | x8 | x8 | x8 | x8 | x8 | x8 | x8 | x8 | x8 | x8 | x8 | x8 | x8 | x8 | x8 | %166
 x8 | x8 | x8 | x8 | x8 | x8 | x8 | x8 | x8 | x8 | x8 | x8 | x8 | x8 | x8 | x8 | x8 | x8 | x8 | %185
 x8 | x8 | x8 | x8 | x8 | x8 | x8 | x8 | x8 | x8 | x8 | x8 | x8 | x8 | x8 | x8 | x8 | x8 | x8 | %204
 x8 | x8 | x8 | x8 | x8 | x8 | x8 | x8 |][K:G][M:2/4] x4 | x4 | x4 | x4 | x4 | x4 | x4 | x4 | x4 | %221
 x4 | x4 | x4 | x4 | x4 | x4 | x4 | x4 | x4 | x4 | x4 | x4 | x4 | x4 | x4 | x4 | x4 | x4 | x4 | %240
 x4 | x4 | x4 | x4 | x4 | x4 | x4 | x4 | x4 | x4 | x4 | x4 | x4 | x4 | x4 | x4 | x4 | x4 | x4 | %259
 x4 | x4 | x4 | x4 | x4 | x4 | x4 | x4 | x4 | x4 | x4 | x4 | x4 | x4 | x4 | x4 | x4 | x4 | x4 | %278
 x4 | x4 | x4 | x4 | x4 | x4 | x4 | x4 | x4 | x4 | x4 | x4 | x4 | x4 | x4 | x4 | x4 | x4 | x4 | %297
 x4 | x4 | x4 | x4 | x4 | x4 | x4 | x4 | x4 | x4 | x4 | x4 | x4 | x4 | x4 | x4 | x4 | x4 | x4 | %316
 x4 | x4 | x4 | x4 | x4 | x4 | x4 | x4 | x4 | x4 | x4 | x4 | x4 | x4 | x4 | x4 | x4 | x4 | x4 | %335
 x4 | x4 | x4 | x4 | x4 | x4 | x4 | x4 | x4 | x4 | x4 | x4 | x4 | x4 | x4 | x4 | x4 | x4 | x4 | %354
 x4 | x4 | x4 | x4 | x4 | x4 | x4 | x4 | x4 | x4 | x4 | x4 | x4 | x4 | x4 | x4 | x4 | x4 | x4 | %373
 x4 | x4 | x4 | x4 | x4 | x4 | x4 | x4 | x4 | x4 | x4 | x4 | x4 | x4 | x4 | x4 | x4 | x4 | x4 | %392
 x4 | x4 | x4 | x4 | x4 | x4 | x4 | x4 | x4 | x4 | x4 | x4 | x4 | x4 | x4 | x4 | x4 | x4 | x4 | %411
 x4 | x4 | x4 | x4 | x4 | x4 | x4 | x4 | x4 | x4 | x4 | x4 | x4 | x4 | x4 | x4 | x4 | x4 | x4 | %430
 x4 | x4 | x4 | x4 | x4 | x4 | x4 | x4 | x4 | x4 | x4 | x4 | x4 | x4 | x4 | x4 | x4 |] %447
V:3
 [DBg] B/c/ dd{/e} d(c/B/){/d} c(B/A/) | [G,DBg] B/c/ dd{/e} d(c/B/){/d} c(B/A/) | %2
 GG, z d e/(c/B/c/) e/(c/B/c/) | eg z g z gec | d/(B/A/B/) d/(B/A/B/) dg z g | %5
 z gdB c/c/B/c/ c/c/B/c/ | ca z a z acA | B/G/A/B/ c/d/e/f/ g3/2(3b/4a/4g/4 gg | %8
 g3/2(3(b/4a/4g/4) gg a3/2(3c'/4b/4a/4 aa | a3/2(3c'/4b/4a/4 ag f/e/d z/ d/e/f/ | gd'bg ec'af | %11
 gd'/b/ g=f ec'/a/ g^f | g3/2f/4e/4 d^c g3/2f/4e/4 dc | c3/2B/4c/4 ac B3/2A/4B/4 gB | %14
 A3/2B/4c/4 BB B/G/A/B/ c/d/e/f/ | g/g/g/g/ !//!g2 !//!g2 g/g/b/b/ | !//!a2 !//!a2 !//!a2 !//!a2 | %17
 g/b/a/g/ f/e/d/c/ B3/2A/4G/4 c^c | d2 B,d CeD[DAf] | [DBg] (3B,/C/D/ G,2 G,GG,G | G,2 G,2 G,GG,G | %21
 G,2 G,2 !/!G,4 | !/!G,4 G,2 E2 | DD F/G/A/F/ GB,DB, | z G2 G z B,DB, | z G2 G z ^CEC | %26
 z A2 A z ^CA,C | z A2 A z A2 F | G, z A, z B,2 z d | d z ^c z F2 z [Ge] | [Fd]2 [DA]2 z DGG, | %31
 z B2 ^G A, z B, z | ^C2 z ^G, A, z B, z | ^C2 z d ddBB | z B^cc d2 A2 | A2 A2 A2 G2 | %36
 F z A z G z eE | A z F z G z E z | =F3 ^F G2 z2 | B,4 A,/B,/^C/D/ E/D/C/B,/ | %40
 A,^ccc [Fd][FA]d[FA] | z Aee z FAF | z BBB z AA,A | z AAA A2 E2 | D2 E2 F2 dG | AFAB A2 ^C2 | %46
 D2 E2 F2 dG | A2 z B, A,2 ed/^c/ | z4 df/g/ aa |{/b} ag/f/4a/4{/a} gf/e/ ff/g/{/b} ag/f/ | %50
 gf/e/ fe/d/ ^cAAA |{/b} ag/f/{/a} gf/e/ fd Da | b/g/f/g/ b/g/f/g/ ^degb | %53
 a/f/e/f/ a/f/e/f/ ^cdfa | g/g/f/g/ g/f/e/d/ ^c/d/e/f/ g/f/g/e/ | %55
 f/g/a/g/ f/e/d/^c/ d/e/f/e/ d/c/B/A/ | B/^c/d/c/ B/A/G/F/ G/A/B/G/ AA, | %57
 D2 [DAf]a [DBg]b [E^ce]a | [DAf] [DA]/>[DA]/ [DA][DA] [DAf]2 z2 | DdDd D2 D2 | %60
 D/d/^c/d/ D/d/c/d/ !/!D4 | !/!D4 !/!D4 | D2 z B A2 ee | ^d4 e2 z2 | ^d4 e2 z2 | %65
 ^D4 E2 (G/F/E/D/) | ^C4 D2 z2 | ^C4 D2 z2 | A6 z A | B4 A4 | G3 ^G F^A ^c_B | !/!A4 !/!^c4 | %72
 BFGF FDdd | ^cc=cc BB_BB | AAFF G3 ^G | F F2 F !/!G4 | !/!F4 !/!G4 | !/!F4 GGFF | GB^cF FEFF | %79
 FFGF F2 F2 | G2 F2 F2 z2 |"^V.v" [DBg] B/c/ dd{/e} dc/B/{/d} cB/A/ | %82
 [DBg] B/c/ dd{/e} dc/B/{/d} cB/A/ | GG, z d (e/c/B/c/) (e/c/B/c/) | eg z g z gec | %85
 d/B/A/B/ d/B/A/B/ dg z g | z gdB c/(c/B/c/) c/(c/B/c/) | ca z a z acA | B/d/g/f/ e/d/c/B/ BA z d | %89
 _BG_e^c dD z A | =FDd=B cC z c | c/_e/d/c/ cc ^f>g ac | _Bg z ^c da z =c | _Bg z ^c dA_B^F | %94
 GD_E^C DdDd | [DAf]2 d/c/=B/A/ GG,GG, | G,2 G2 G,G,G,G, | !/!G,4 G,>B A/G/F/E/ | DddD D2 d2 | %99
 !/!D4 !/!D4 | D2 z2 z BDd | e8 | d8 | c8 | Be/d/ c/B/A/G/ GF G2 | z8 | z8 | z4 B4- | B2 z2 z4 | %109
 z4 G4- | G4- G2 z2 | GBFA G/G/G/G/ !//!G2 | !//!G2 !//!G2 !//!G2 !//!G2 | %113
 G/G/F/F/ G/G/_B/B/ F/F/F/F/ F/F/G/G/ | !//!G2 !//!G2 !//!G2 !//!G2 | !//!G2 G/G/F/F/ G2 z2 | %116
 z2 ^c/e/d/c/ d2 z2 | z2 F/A/G/F/ G2 D2 | D2 D2 D2 z2 | z4 D2 D2 | D2 B2 A2 z2 | z8 | %122
 z4 [DBg]"^V.v." B/c/ dd |{/e} dc/B/{/d} cB/A/ BB/c/{/e} dd |{/e} dc/B/{/d} cB/A/ BG G,2 | %125
 ec G,2 dB G,2 | caBg A/d/^c/d/ D2 | g3/2(3b/4a/4g/4 gg g3/2(3b/4a/4g/4 gg | %128
 a3/2(3c'/4b/4a/4 aa a3/2c'/4b/4 ag | (3f/e/d/d z/ d/e/f/ gd'bg | ec'af gd'/b/ g=f | %131
 ec'/a/ g^f g3/2f/4e/4 d^c | g3/2f/4e/4 d^c dD z d | =c3/2B/4c/4 ac B3/2A/4B/4 gB | %134
 A3/2B/4c/4 BA G/A/B/c/ d/e/f/g/ | B/c/d/e/ f/g/a/b/ D2 [DAf]2 | %136
 [G,DBg] [G,D]/[G,D]/ [G,D][G,D] [G,DBg]2 !fermata!z2 |][K:C][M:2/2] (3c'ge(3cGE (3CCC(3CCC | %138
 (3c'af(3cAF (3CCC(3CCC | (3c'ge(3cGE (3CCC(3CCC | (3fdB(3FDB, (3G,G,G,(3G,G,G, | %141
 (3CCC(3ccc (3eee(3ggg | (3ddd(3ggg (3bbb(3ddd | (3ccc(3^fff (3aaa(3ccc | %144
 (3BGG(3G,GG (3G,=FF(3G,FF | (3G,EE(3G,EE (3G,DD(3G,DD | (3G,CC(3G,CC (3G,B,B,(3G,B,B, | %147
 G,2 z2 (3gfe(3dc_B | (3A^GA(3AGA (3A=Bc(3def | (3egf{/f}(3edc (6:4:6dfedcB | c3 _e/d/ c>_B_A>G | %151
 ^F3 d/c/ =B>=AG>=F | (3EG=B(3Acf (3egc(3dfB | (3ceg(3gee (3ecc(3cGG | (3GEE(3ECC (3CCC(3CCC | %155
 [Gce]4 !fermata!z4 |"^Solo" e2 e2 e2 e2 | e2 e2 e2 g2 | f2 c2 (3Bcd{/e}(3dcB | c2 E2 c2 e2 | %160
 d6 e2 | c8 | B2 z2 (3Bcd{/e}(3dcB | c2 e2 e2 e2 | A2 (3AAA B2 (3BBB | c2 (3ccc B2 (3BBB | %166
 A4 [Dd]4- | [Dd]2 z2 e4 | d4 c4 | B8- | B2 z2 A4 | B2 z2 z4 | (3gdB(3GDB, (3G,G,G,(3G,G,G, | %173
 (3gec(3GEC (3G,G,G,(3G,G,G, | (3gdB(3GDB, (3G,G,G,(3G,G,G, | (3c'a^f(3cA^F (3CCC(3CCC | %176
 B,2 (3Bcd (3e^fg(3ABc | (3de^f(3GAB (3cde(3^FGA | (3Bcd(3de^f (3gfe(3dcB | (3BGB A2 z4 | %180
 (3_BBB(3BBB (3^ccc(3ccc | (3ddd(3ddd (3AAA(3AAA | (3AAA(3AAA (3GGG(3EEE | %183
 (3[^FA]d^c (3dAF D2 !fermata!z2 | D2 D2 (3EEE E2 | (3DDD D2 (3^FFF F2 | G2 z2 G4- | G2 G4 ^F2 | %188
 G2 (3DDD G4- | G2 _E2 ^G2 c2 | _e8 | d8 | c8 | =B4 c4 | F4 _E2 _A2 | F2 ^F2 G2 (3=BcB | c4 d4 | %197
 G2 A2 F2 D2 | C4 c4 | B2 z2 B4 | d2 z2 z4 | (3c'ge(3cGE (3CCC(3CCC | (3c'af(3cAF (3CCC(3CCC | %203
 (3c'ge(3cGE (3CCC(3CCC | (3fdB(3FDB, (3DDD(3DDD | [CE]2 (3ge_B (3Afe(3dc=B | c3 _e/d/ c>_B_A>G | %207
 ^F3 d/c/ =B>=AG>=F | (3EG_B(3Acf (3egc(3df=B | (3ceg(3gee (3ecc(3cGG | (3GEE(3EEE (3EEE(3EEE | %211
 [Gce]4 !fermata!z4 |][K:G][M:2/4] d2{ef} g2 |{/g} f/e/d z e | cA Dc | B/c/d z e | cA Dc | %217
 B/A/G z d | (b/4a/4g3/2) (g/4f/4e3/2) | (a/4g/4f3/2) (f/4e/4d3/2) | (g/4f/4e3/2) (f/4e/4d3/2) | %221
 ^c/4B/4A3/2 A,2 | g/4f/4e3/2 ^c/4B/4A3/2 | f/4g/4a3/2 z A | Bg/>d/{/d} ^c3/2B/4c/4 | d2 z b | %226
 [Dc]a [DB]g | [DAf]2 z b | [Dc]a [DB]g | [DAf]2 z d | g3/2f/4e/4 d^c | c2 a2 | B2 g2 | %233
 A3/2B/4c/4 BA | g3/2f/4e/4 d^c | =c2 a2 | B2 g2 | A3/2B/4c/4 BA | Gg/a/ ga | bg/a/ ga | %240
 ba/g/ f/e/d/c/4c/4 |{/c} BA/G/4B/4{/B} AG/F/ | Gg/a/ ga | bg/a/ ga | ba/g/ f/e/d/c/4c/4 | %245
{/c} BA/G/4B/4{/B} AG/F/ | G2 [DBg]2 | [Eca]2 [DAf]2 | [DBg]2 z2 | z G, B,^C | D2 G2- | G2 F2 | %252
 G2 G2- | G2 F2 | G2 z G | !/!G4 | !/!G4 | GF GB | AF F2 | B2 z2 | A2 z2 | Bc dc | B4 | c A2 ^G | %264
 AE FD | C2 F/G/A/G/ | A2 z2 | G2 z2 | AB cB | A4 | G2 G2 | E2 F2 | B,4 | [B,D][B,D] [B,D][B,D] | %274
 [^CE]4 | [^CE]4 | [DF]4 | [DF]4 | G4 | [^CE]4 | D2 F2 | G2 F2 | E2 D2 | A2 ^G2 | A2 z A | ^c4 | %286
 d4 | B4 | A2 G2 | F3 A | A4- | A4 | B4- | B2 z2 | E2 E2 | DF GA | d2{bc'} d'2 | ^c'/4b/4a3/2 z b | %298
 gd Bg | f/4g/4a3/2 z b | ge Ag | f/e/d z f | e2 a2 | a2 f2 | e2 a2 | a2 f2 | eA B^c | d2 Ed/>d/ | %308
 ^c2 Ec | BA B^G | A2 z2 | z4 | z4 | z4 | z4 | z4 | z4 | z4 | z4 | z4 | z4 | =c2 c2 | c2 BA | %323
 A/B/A/B/ cc | BG AF | G2 z2 | GA BB | B2 AG | G/A/G/A/ BB | B2 AG | AF GE | F2 z A | B4 | A4 | %334
 G2 ^G2 | F2 z2 | ^c2 z2 | e2 e2 | e2 z2 | e2 z2 | ^c2 z2 | e2 e2 | e2 e2 | d2 z2 | z2 F2 | %345
 B2 ^G2 | ^c2 e2 | d^c B_B | B2 F2- | FE D^C | B2 G2 |{/d} ^c4 | B2 z2 | d2{ef} g2 | f/e/d z e | %355
 cA Dc | B/4c/4d3/2 z e | cA Dc | B/A/G z d | _eg z ^c | d=f z =B | c^d z A | _Bd z B | %363
 _e/d/c/!courtesy!_B/ AG | [DAf]2 [D_Bg]2 | [DAf]d _BG | [DAf]2 [D_Bg]2 | [DAf]d _BG | %368
 [DAf]2 [D_Bg]2 | [DAf]2 !fermata!z2 | z G, =B,^C | D2 G2 | G2 F2 | G2 G2- | G2 F2 | G2 z G | %376
 G,G G,G | G,G G,G- | GF GB | F2 z2 | G2 z G | G/G/G/G/ !//!G2 | !//!G2 !//!G2 | G2 z ^G | A2 z A | %385
 A/A/A/A/ !//!A2 | !//!A2 !//!A2 | A2 z2 | d4 | e2 z e | e4 | d2 z d | d4 | c2 z c | c4 | B2 dG | %396
 G2 FG/F/ | G2 z g | g4 | f4- | f4 | e4- | e4 | d4- | d2 z G | GF G2 | z4 | z d _BG | CA, DD | %409
 _B,2 z2 | z4 | z2 G2 | ^F2 Ac | =B2 DB | E2 FA | G2 F2 | G(C _B,A,) | _B,2 _E2 | D2 C2 | %419
 _B,2 D2- | DC _B,A, | G,2 =B,2 | C2 G,2 | A,2 C2 | DF GA | GB FA | G2 z e | cA Dc | B/c/d z e | %429
 cA Dc | B/4c/4d3/2 d/4c/4B3/2 | e/4f/4g3/2 A/4B/4c3/2 | d/4e/4f3/2 G/4A/4B3/2 | %433
 c/4d/4e3/2 F/4G/4A3/2 | Bg/a/ ga | bg/a/ ga | ba/g/ f/e/d/c/ | Bg Cf | gg/a/ ga | bg/a/ ga | %440
 ba/g/ f/e/d/c/ | Bg Df | G2 [DBg]2 | [Eca]2 [DAf]2 | [DBg]2 dB | G2 DB, | [DBg]4 |] %447
V:4
 x4 D4 | x4 D4 | z8 | x8 | x8 | x8 | x8 | x8 | x8 | x8 | x8 | x8 | x8 | x8 | x8 | x8 | x8 | x8 | %18
 x8 | x8 | x8 | x8 | x8 | x8 | x8 | x8 | x8 | x8 | x8 | x8 | x8 | x8 | x8 | x8 | x8 | x8 | x8 | %37
 x8 | x8 | x8 | x8 | x8 | x8 | x8 | x8 | x8 | x8 | x8 | dd^cc x4 | A4- A4 | A3 z x2{fg} aa | %51
 A4 A z x2 | x8 | x8 | x8 | x8 | x8 | x8 | x8 | x8 | x8 | x8 | x8 | x8 | x8 | x8 | x8 | x8 | x8 | %69
 x8 | x8 | x8 | x8 | x8 | x8 | x8 | x8 | x8 | x8 | x8 | x8 | x4 D4 | x4 D4 | x8 | x8 | x8 | x8 | %87
 x8 | x8 | x8 | x8 | x8 | x8 | x8 | x8 | x8 | x8 | x8 | x8 | x8 | x8 | x8 | x8 | x8 | x8 | x8 | %106
 x8 | x8 | x8 | x8 | x8 | x8 | x8 | x8 | x8 | x8 | x8 | x8 | x8 | x8 | x8 | x8 | x8 | D4 D4 | %124
 D4 x4 | x8 | x8 | x8 | x8 | x8 | x8 | x8 | x8 | x8 | x8 | x8 | x8 |][K:C][M:2/2] x8 | x8 | x8 | %140
 x8 | x8 | x8 | x8 | x8 | x8 | x8 | x8 | x8 | x8 | x8 | x8 | x8 | x8 | x8 | x8 | x8 | x8 | x8 | %159
 x8 | x8 | x8 | x8 | x8 | x8 | x8 | x8 | x8 | x8 | x8 | x8 | x8 | x8 | x8 | x8 | x8 | x8 | x8 | %178
 x8 | x8 | x8 | x8 | x8 | x8 | x8 | x8 | x8 | x8 | x8 | x8 | x8 | x8 | x8 | x8 | x8 | x8 | x8 | %197
 x8 | x8 | x8 | x8 | x8 | x8 | x8 | x8 | x8 | x8 | x8 | x8 | x8 | x2 G,2 G,2 G,2 | x8 |] %212
[K:G][M:2/4] x4 | x4 | x4 | x4 | x4 | x4 | x4 | x4 | x4 | x4 | x4 | x4 | x4 | x4 | x4 | x4 | x4 | %229
 x4 | x4 | x4 | x4 | x4 | x4 | x4 | x4 | x4 | x4 | x4 | x4 | x4 | x4 | x4 | x4 | x4 | x4 | x4 | %248
 x4 | x4 | x4 | x4 | x4 | x4 | x4 | x4 | x4 | x4 | x4 | x4 | x4 | x4 | x4 | x4 | x4 | x4 | x4 | %267
 x4 | x4 | x4 | x4 | x4 | x4 | x4 | x4 | x4 | x4 | x4 | x4 | x4 | x4 | x4 | x4 | x4 | x4 | E4 | %286
 F4 | G4 | x4 | x4 | x4 | x4 | x4 | x4 | x4 | x4 | x4 | x4 | x4 | x4 | x4 | x4 | x4 | x4 | x4 | %305
 x4 | x4 | x4 | x4 | x4 | x4 | x4 | x4 | x4 | x4 | x4 | x4 | x4 | x4 | x4 | x4 | x4 | x4 | x4 | %324
 x4 | x4 | x4 | x4 | x4 | x4 | x4 | x4 | x4 | x4 | x4 | x4 | x4 | x4 | x4 | x4 | x4 | x4 | x4 | %343
 x4 | x4 | x4 | x4 | x4 | x4 | x4 | x4 | x4 | x4 | x4 | x4 | x4 | x4 | x4 | x4 | x4 | x4 | x4 | %362
 x4 | x4 | x4 | x4 | x4 | x4 | x4 | x4 | x4 | x4 | x4 | x4 | x4 | x4 | x4 | x4 | x4 | x4 | x4 | %381
 x4 | x4 | x4 | x4 | x4 | x4 | x4 | x4 | x4 | x4 | x4 | x4 | x4 | x4 | x4 | x4 | x4 | x4 | x4 | %400
 x4 | x4 | x4 | x4 | x4 | x4 | x4 | x4 | x4 | x4 | x4 | x4 | x4 | x4 | x4 | x4 | x4 | x4 | x4 | %419
 x4 | x4 | x4 | x4 | x4 | x4 | x4 | x4 | x4 | x4 | x4 | x4 | x4 | x4 | x4 | x4 | x4 | x4 | x4 | %438
 x4 | x4 | x4 | x4 | x4 | x4 | x4 | x4 | x4 |] %447
V:5
 [DBg] G/A/ BB{/c} BA/G/{/B} AG/F/ | [DBg] G/A/ BB{/c} BA/G/{/B} AG/F/ | %2
 GG, z d e/(c/B/c/) e/(c/B/c/) | ee z e z gGg | G/B/A/B/ G/B/A/B/ Gd z d | z dgG GFGG | %6
 Af z f z fAF | [B,G]2 z2 z2 z (3b/a/g/ | g g2 (3b/a/g/ g g2 g- | g g2 e A/G/F z/ d/e/f/ | %10
 gd'bg ec'af | gd'/b/ g=f ec'/a/ g^f | g3/2f/4e/4 d^c g3/2f/4e/4 dc | %13
 =c3/2B/4c/4 ac B3/2A/4B/4 gG | GGGF G2 z2 | z2 z G g/g/g/g/ !//!g2 | !//!g2 !//!g2 !//!g2 !//!f2 | %17
 g/b/a/g/ f/e/d/c/ B3/2A/4G/4 GG | F2 GB, CeD[DAf] | [DBg] (3B,/C/D/ G,2 G,GB,G | G,2 G,2 GG,GG, | %21
 G,2 G,2 !/!G,4 | !/!G,2 G,2 C2 ^C2 | DD D/E/F/D/ GG,B,G, | z CEC z G,B,G, | z CEC z A,^CA, | %26
 z DFD z A,^CA, | z DFD z DFD | G, z A, z B, z z F | G z A z B,2 z ^C | D2 F2 z DGG, | %31
 z E^GE A, z B, z | ^C2 z ^G, A, z B, z | ^C z z ^G, !/!G,4 | z EA=G F2 F2 | ^C2 C2 D2 A,2 | %36
 D z F z G z AG | F z D z G, z A, z | D4 G2 z2 | G,4 A,/=B,/^C/D/ E/D/C/B,/ | A,AGG FDFD | %41
 z AA,A z DFD | z ^G,G,G, z A,A,A, | z A,A=G F2 ^C2 | D2 E2 F2 B,G | FDFG A2 A,2 | D2 E2 F2 B,G | %47
 F2 z ^G, !/!A,4 | A,4 Dd/e/ ff |{/g} fe/d/{/f} ed/^c/ dd/e/{/g} fe/d/ | %50
{/f} ed/^c/{/e} dc/B/ Ad/e/ ff |{/g} fe/d/{/f} ed/^c/ dFFd | dd d2 z B b2 | dd d2 z A a2 | %54
 z B e/d/^c/B/ A/B/c/d/ e/d/e/c/ | d/e/f/e/ d/^c/B/A/ B/c/d/c/ B/A/G/F/ | %56
 G/A/B/A/ G/F/E/D/ G/A/B/G/ AA, | D2 [DAf]a [DBg]b [E^ce]a | fd/>d/ dd d2 z2 | dDdD D2 D2 | %60
 DDDD D4 | DdDd DdDd | D2 z ^G AA,CC | B,4 E2 z2 | B,4 E2 z2 | B,4 E2 E/D/C/B,/ | A,4 D2 z2 | %67
 A,4 D2 z2 | ^C4 D2 z D | G2 ^CC F2 B,B, | E3 ^E !/!F4 | !/!F4 =E^A,A,A, | B,DEF !/!B,4 | %73
 !/!^A,4 ^G,G,=G,G, | FFFD E3 =F | FFED E4 | D4 E4 | D4 EEFF | GE^A,A, B,B,A,A, | B,DEF B,2 D2 | %80
 E2 F2 B,2 z2 | [DBg] G/A/ BB{/c} BA/G/{/B} AG/F/ | [DBg] G/A/ BB{/c} BB/A/{/B} AG/F/ | %83
 GG, z d e/c/B/c/ e/c/B/c/ | ee z e z gGg | G/G/F/G/ G/G/F/G/ Gg z d | z dgG GFFG | Af z f z fAF | %88
 G/B/e/d/ c/B/A/G/ GF z2 | z _B, _B2 AA D2 | z _A, _A2 GG G,2 | G4 A>_B c^F | G z g z f z A z | %93
 G z g z dA_BF | GD_E^C DFDF | [DAf]2 F/A/G/F/ G,GG,G | G,2 G2 !/!G,4 | !/!G,4 G,>B A/G/F/E/ | %98
 DdDd D2 d2 | !/!D4 !/!D4 | D2 z2 z GG,G | A4 F4- | F4 E4- | E4 D4- | D2 E2 DD D2 | z8 | z8 | %107
 z4 G4- | G2 z2 z4 | z4 B,4- | B,6 z2 | DDCC B,_B,/A,/ G,2 | z2 z G GG, z G | _EDDD DD D2 | %114
 z G G,2 z G G,2 | _EEDC =B,2 z2 | z2 G2 ^F2 z2 | z2 C2 B,2 B,2 | B,2 B,2 B,2 z2 | z4 D2 D2 | %120
 B,2 G2 F2 z2 | z8 | z4 [DBg] G/A/ BB |{/c} BA/G/{/B} AG/F/ GG/A/{/c} BB | %124
{/c} BA/G/{/B} AG/F/ GB, G,2 | cE G,2 BD G,2 | AfGB F/F/E/F/ FG/F/ | G2 z (3b/a/g/ g g2 (3b/a/g/ | %128
 g g2 g2 g2 e | (3A/G/F/F z/ d/e/f/ gd'bg | ec'af gd'/b/ g!courtesy!=f | %131
 ec'/a/ g^f g3/2f/4e/4 d^c | g3/2f/4e/4 d^c dD z d | =c3/2B/4c/4 ac B3/2A/4B/4 gG- | G G2 F G2 z2 | %135
 B/c/d/e/ f/g/a/b/ D2 [DAf]2 | [DBg][G,D]/[G,D]/ [G,D][G,D] [G,DBg]2 !fermata!z2 |] %137
[K:C][M:2/2] (3ecG(3ECG, (3CCC(3CCC | (3afc(3AFC (3A,A,A,(3A,A,A, | (3ecG(3ECG, (3CEE(3EEE | %140
 (3BFD(3B,DF (3DDD(3DDD | (3CCC(3EEE (3GGG(3eee | (3GGG(3DDD (3GGG(3GGG | (3G^FA(3ccc (3^fff(3FFF | %144
 G2 z2 z4 | (3G,GG(3G,GG (3G,=FF(3G,FF | (3G,EE(3G,EE (3G,DD(3G,DD | [B,D]2 z2 c2 C2- | %148
 C2 C2 C2 z2 | (3egf(3edc (3dfe(3dcB | c3 _e/d/ c>_B_A>G | ^F3 d/c/ _B>AG>F | %152
 (3EG=B(3Acf (3egc(3dfB | (3cce(3ecc (3cGG(3GEE | (3ECC(3CEE (3EEE(3EEE | [Ece]4 !fermata!z4 | %156
 G2 G2 G2 G2 | c2 c2 c2 c2 | c2 B2 D2 F2 | E2 G2 G2 G2 | ^F4 G4 | E4 ^F4 | G2 z2 z2 G2- | %163
 G2 G2 G2 A2 | [^FA]2 (3FFF G2 (3GGG | [^FA]2 (3FFF G2 (3GGG | ^F4 A4 | B2 B4 A2- | A2 G4 ^F2 | %169
 G8- | G2 z2 d4 | D2 z2 z4 | (3BGD(3B,DG (3DDD(3DDD | (3ecG(3ECG, (3EEE(3EEE | %174
 (3dBG(3B,DG (3DDD(3DDD | (3^fcA(3A^FD (3FFF(3FFF | G2 (3GAB (3cde(3^FGA | (3Bcd(3E^FG (3ABc(3DEF | %178
 (3GAB(3Bcd (3edc(3BAG | (3GEG ^F2 (3AAA(3AAA | (3AAA(3AAA (3GGG(3EEE | (3^FFF(3FFF F2 z2 | %182
 (3_BBB(3BBB (3^ccc(3ccc | (3^FFE(3FFA F2 !fermata!z2 | B,2 B,2 (3CCC C2 | %185
 (3B,B,B, B,2 (3A,A,A, A,2 | D2 z2 E4 | D4 C4 | B,2 (3B,B,B, (3DDD(3D_EE | _E2 E2 F2 F2 | %190
 _E2 C4 _A2 | _A4 G4- | G4 F4- | F2 _A2 G4- | G6 F2 | D6 (3D_ED | E8 | E2 C4 F2 | E2 ^F2 F4 | %199
 G2 z2 D4 | z8 | (3ecG(3ECG, (3[G,E][G,E][G,E](3[G,E][G,E][G,E] | %202
 (3afc(3AFD (3[A,F][A,F][A,F](3[A,F][A,F][A,F] | (3ecG(3ECG, (3[G,E][G,E][G,E](3[G,E][G,E][G,E] | %204
 (3dBF(3DB,G, (3DDD(3DDD | E2 (3ge_B (6:4:6Afefed | c3 _e/d/ c>_B_A>G | ^F3 d/c/ =B>=AG>=F | %208
 (3EG_B(3Acf (3egc(3df=B | (3cce(3ecc (3cGG(3GEE | (3ECC(3CCC (3CCC(3CCC | [Gce]4 !fermata!z4 |] %212
[K:G][M:2/4] d2{ef} g2 |{/g} f/e/d z e | cA Dc | B/c/d z e | cA Dc | B/A/G z d | bB b2 | z A a2 | %220
 z B d/4^c/4B3/2 | A/4B/4^c3/2 A,2 | e/4d/4^c3/2 e/4d/4c3/2 | d/4e/4f3/2 z A | BB/>F/ E2 | D2 z g | %226
 [DF]f [G,G]B | [DAf]2 z b | [FA]f [G,G]B | [DAf]2 z d | d G2 G | A2 f2 | G2 BG- | GG GF | G4 | %235
 A2 f2 | G2 BG- | GG GF | GB/c/ Bc | dB/c/ Bc | de AA/>c/ |{/c} BA/G/4B/4{/B} AG/F/ | GB/c/ Bc | %243
 dB/c/ Bc | de AA/>c/ |{/c} BA/G/4B/4{/B} AG/F/ | G2 [G,DB]2 | [Ece]2 [DAf]2 | [DBg]2 z2 | %249
 z G, B,^C | DD B,B, | CC A,A, | B,B, G,G, | A,4 | G,2 z B, | !/!C4 | !/!B,4 | A,2 G,2 | %258
 D2 d/c/B/A/ | ^G2 z2 | =F2 z2 | E2 z2 | E2 ^G,2 | A, A2 ^G | AC DE | A,2 A/G/F/G/ | F2 z2 | %267
 E2 z2 | D2 z2 | D2 F2 | G2 G,2 | C2 D2 | !/!G,4 | !/!G,4 | !/!A,4 | !/!A,4 | !/!A,4 | !/!A,4 | %278
 !/!A,4 | !/!A,4 | D2 F2 | G2 F2 | E2 D2 | ^C2 B,2 | A,2 z A | A,4 | D4 | G4 | A2 A,2 | D3 F | %290
 ^C4 | D4 | G,4- | G,2 z2 | ^C2 C2 | DF GA | d2{bc'} d'2 | ^c'/4b/4a3/2 z b | gd Bg | %299
 f/4g/4a3/2 z b | ge Ag | f/e/d z f | eA fA | eA aA | aA fA | eA aA | aA B^c | dF ^GA | A2 EA | %309
 FE F^G | A2 z2 | z4 | z4 | z4 | z4 | z4 | z4 | z4 | z4 | z4 | z4 | A2 f2 | f2 z2 | A2 f2 | %324
 e2 z A | G2 G/A/B/A/ | B2 E2 | E2 z2 | G2 e2 | e2 e2 | A2 z G | FG Ad | d2 e2- | e2 d2 | d2 ^c2 | %335
 !courtesy!^c2 z2 | ^A2 z2 | ^c2 c2 | ^c2 z2 | ^c2 z2 | ^A2 z2 | ^c2 c2 | ^c2 c2 | B2 z2 | z4 | %345
 z4 | z4 | z4 | z4 | z4 | B2 B2- | B2 ^A2 | B2 z2 | d2{ef} g2 | f/e/d z e | cA Dc | B/c/d z e | %357
 cA Dc | B/A/G AA | _B4 | A2 _A2 | G4 | =F4 | G2 _E2 | Dd _BG | [DAf]2 [D_Bg]2 | [DAf]d _BG | %367
 [DAf]2 [D_Bg]2 | [DAf]d _BG | [DAf]2 !fermata!z2 | z G, B,^C | D2 B,2 | C2 A,2 | B,2 B,2 | %374
 A,2 F2 | G2 B,2 | !/!C4 | !/!B,4 | A,2 G,2 | D2 D/C/B,/A,/ | !/!B,4 | CD B,G, | CD B,G, | %383
 C2 z _B, | A,2 z ^C | DE ^CA, | DE ^CA, | D2 z2 | B4 | c2 z G | A4- | A2 z G | G4- | G2 z F | F4 | %395
 G2 z E | D2 D2- | D2 z d | e4- | e4 | d4- | d4 | c4- | c4 | B2 z E | D4 | z4 | z4 | z4 | z d _BG | %410
 cA dc | _B2 _E2 | D2 F2 | G2 G,2 | C2 D2 | G,2 F2 | GC _B,A, | G,2 C2 | D2 D2 | G,2 ^F2 | %420
 GC _B,A, | G,2 =B,2 | C2 G,2 | A,2 A,2 | DC B,C | D2 D2 | G2 z =B | Ac FA | G/A/B z d | cA Dc | %430
 B2 d2 | e4 | d4 | c4 | BB/c/ Bc | dB/c/ Bc | de AA | GB FA | BB/c/ Bc | dB/c/ Bc | de AA | GB FA | %442
 G2 [DBg]2 | [Ece]2 [DAf]2 | [DBg]2 BG | G,2 B,D | [DBg]4 |] %447
V:6
 x4 D4 | x4 D4 | z8 | x8 | x8 | x8 | x8 | x8 | x8 | x8 | x8 | x8 | x8 | x8 | x8 | x8 | x8 | x8 | %18
 x8 | x8 | x8 | x8 | x8 | x8 | x8 | x8 | x8 | x8 | x8 | x8 | x8 | x8 | x8 | x8 | x8 | x8 | x8 | %37
 x8 | x8 | x8 | x8 | x8 | x8 | x8 | x8 | x8 | x8 | x8 | x8 | x8 | x8 | x8 | x8 | x8 | x8 | x8 | %56
 x8 | x8 | [DA]2 z2 [A,F]2 z2 | x8 | x8 | x8 | x8 | x8 | x8 | x8 | x8 | x8 | x8 | x8 | x8 | x8 | %72
 x8 | x8 | x8 | x8 | x8 | x8 | x8 | x8 | x8 | x8 | x8 | x8 | x8 | x8 | x8 | x8 | x8 | x8 | x8 | %91
 x8 | x8 | x8 | x8 | x8 | x8 | x8 | x8 | x8 | x8 | x8 | x8 | x8 | x8 | x8 | x8 | x8 | x8 | x8 | %110
 x8 | x8 | x8 | x8 | x8 | x8 | x8 | x8 | x8 | x8 | x8 | x8 | x8 | x8 | x8 | x8 | x8 | x8 | x8 | %129
 x8 | x8 | x8 | x8 | x8 | x8 | x8 | x8 |][K:C][M:2/2] x8 | x8 | x8 | x8 | x8 | x8 | x8 | x8 | x8 | %146
 x8 | x8 | x8 | x8 | x8 | x8 | x8 | x8 | z4 G,2 G,2 | x8 | x8 | x8 | x8 | x8 | x8 | x8 | x8 | x8 | %164
 x8 | x8 | x4 ^F4 | G2 x6 | x8 | x8 | x8 | x8 | x8 | x8 | x8 | x8 | x8 | x8 | x8 | x8 | x8 | x8 | %182
 x8 | x8 | x8 | x8 | x8 | x8 | x8 | x8 | x8 | x8 | x8 | x8 | x8 | x8 | x8 | x8 | x8 | x8 | x8 | %201
 x8 | x8 | x8 | x8 | x8 | x8 | x8 | x8 | x8 | x8 | x8 |][K:G][M:2/4] x4 | x4 | x4 | x4 | x4 | x4 | %218
 x4 | x4 | x4 | x4 | x4 | x4 | x4 | x4 | x4 | x4 | x4 | x4 | x4 | x4 | x4 | x4 | x4 | x4 | x4 | %237
 x4 | x4 | x4 | x4 | x4 | x4 | x4 | x4 | x4 | x4 | x4 | x4 | x4 | x4 | x4 | x4 | x4 | x4 | x4 | %256
 x4 | x4 | x4 | x4 | x4 | x4 | x4 | x4 | x4 | x4 | x4 | x4 | x4 | x4 | x4 | x4 | x4 | x4 | x4 | %275
 x4 | x4 | x4 | x4 | x4 | x4 | x4 | x4 | x4 | x4 | x4 | x4 | x4 | x4 | x4 | x4 | x4 | x4 | x4 | %294
 x4 | x4 | x4 | x4 | x4 | x4 | x4 | x4 | x4 | x4 | x4 | x4 | x4 | x4 | x4 | x4 | x4 | x4 | x4 | %313
 x4 | x4 | x4 | x4 | x4 | x4 | x4 | x4 | x4 | x4 | x4 | x4 | x4 | x4 | x4 | x4 | x4 | x4 | x4 | %332
 x4 | x4 | x4 | x4 | x4 | x4 | x4 | x4 | x4 | x4 | x4 | x4 | x4 | x4 | x4 | x4 | x4 | x4 | x4 | %351
 x4 | x4 | x4 | x4 | x4 | x4 | x4 | x4 | x4 | x4 | x4 | x4 | x4 | x4 | x4 | x4 | x4 | x4 | x4 | %370
 x4 | x4 | x4 | x4 | x4 | x4 | x4 | x4 | x4 | x4 | x4 | x4 | x4 | x4 | x4 | x4 | x4 | x4 | x4 | %389
 x4 | x4 | x4 | x4 | x4 | x4 | x4 | x4 | x4 | x4 | x4 | x4 | x4 | x4 | x4 | x4 | x4 | x4 | x4 | %408
 x4 | x4 | x4 | x4 | x4 | x4 | x4 | x4 | x4 | x4 | x4 | x4 | x4 | x4 | x4 | x4 | x4 | x4 | x4 | %427
 x4 | x4 | x4 | x4 | x4 | x4 | x4 | x4 | x4 | x4 | x4 | x4 | x4 | x4 | x4 | x4 | x4 | x4 | x4 | %446
 x4 |] %447
V:7
 G,,2 z G,, D,2 D,,2 | G,,2 z/ G,,/B,,/G,,/ D,2 D,,2 | G,,G,G,,B,, C,2 C,2 | C,CC,C C,CC,C | %4
 B,,2 B,,2 B,,B,B,,B, | B,,B,B,,B, A,,A,F,E, | D,DD,D D,DD,D | G,2 E,C, B,,G,F,F, | %8
 E,E,B,,B,, C,D,E,D, | C,C,^C,C, D,D=C!courtesy!=C, | B,,B,,B,,B,, C,C,D,D, | G,,G,B,G, C,C,C,D, | %12
 E,2 z E, E,4 | D,E,F,D, G,G,,B,,G,, | C,E,D,D,, G,,2 E,C, | %15
 B,,/G,/F,/E,/ D,/C,/B,,/A,,/ G,,G,D,B,, | C,D,_E,D, ^C,C,D,=C, | =B,,C,D,F, G,=F,E,_E, | %18
 D,C,B,,G,, C,2 D,2 | G,,2 z G, G,,2 z2 | z8 | z8 | z8 | z8 | z8 | z8 | z8 | z8 | z8 | z8 | z8 | %31
 z8 | z8 | z8 | z8 | z8 | z8 | z8 | z8 | z8 | z8 | z8 | z8 | z8 | z8 | z8 | z8 | z8 | z4 z D,DD, | %49
 A,2 A,,2 D,2 z2 | A,2 D,2 A,,2 D,/E,/F,/G,/ | A,2 A,,2 D,2 z F, | G,G,G,G, G,G,G,G, | %53
 F,F,F,F, F,F,F,F, | E,E,E,E, A,A,A,,A,, | D,2 z2 D,2 z2 | G,2 B,/A,/G,/F,/ G,/A,/B,/G,/ A,A,, | %57
 D,D D,/D/^C/D/ G,,/G,/F,/G,/ A,/G,/F,/E,/ | D,D/D,/ D,D, D,/D/^C/B,/ A,/G,/F,/E,/ | D,2 z2 z4 | %60
 z8 | z8 | z8 | z8 | z8 | z8 | z8 | z8 | z8 | z8 | z8 | z8 | z8 | z8 | z8 | z8 | z8 | z8 | z8 | %79
 z8 | z4 z z/ A,/ D/C/B,/A,/ | G,G,, z2 D,2 D,2 | G,,2 z G,, D,2 D,2 | G,,G,G,,B,, C,C,C,C, | %84
 C,CC,C C,CC,C | B,,2 B,,2 B,,B,B,,B, | B,,B,B,,B, A,,A,F,D, | D,DD,D D,DD,D | %88
 G,2 C,2 D,2 D/C/_B,/A,/ | G,4 ^F,F, F,,2 | =F,4 E,E, E,,2 | _E,4 D,D,^F,D, | %92
 G, z _E, z D, z ^F, z | G, z _E, z D,2 z2 | z D,_E,^C, D,DD,D | D,2 z D, G,,2 z2 | z8 | z8 | z8 | %99
 z8 | z2 D/C/B,/A,/ G,2 z B,, | C,CB,B, A,A,A,A, | B,B,A,A, G,G,G,G, | A,A,G,G, F,F,F,F, | %104
 G,2 C,2 D,DB,G, | C,2 D,2 E,2 F,2 | G,2 z G, C,2 D,2 | E,2 F,2"^d." G,2 F,2 | %108
 E,2 z C, B,,^C, D,F, | G,B,,=C,D, G,2 F,2 | E,2 D,C, B,,^C,D,F, | G,G,,D,D,, G,,G,/A,/ _B,G, | %112
 CCCC _B,B,B,B, | A,A,G,G, D,DC_B, | CCCC _B,B,B,B, | CCDD, G,2 =B,,^C, | D,2 A,A,, D,2 E,F, | %117
 G,2 D,D,, G,,2 G,,2 | G,,2 G,,2 D,2 E,F, | G,2 D,2 G,,2 G,,2 | G,,2 B,,^C, D,2 E,F, | %121
 G,2 D,2 G,,2 z2 | z CDD, G,2 z G,, | D,2 D,2 G,,2 z G,, | D,2 D,2 G,,G,G,,G, | %125
 G,,/G,/F,/G,/ G,,/G,/F,/G,/ G,,/G,/F,/G,/ G,,/G,/F,/G,/ | D,D,D,D, D,2 D/C/B,/A,/ | %127
 G,G,F,F, E,E,B,,B,, | C,D,E,D, C,C,^C,C, | D,D^C^C, B,,B,,B,,B,, | C,C,D,D, G,,G,B,G, | %131
 CC,C,D, E,2 z E, | E,4 D,/E,/F,/G,/ A,/G,/F,/E,/ | D,E,F,D, G,G,,B,,G,, | C,E,D,C, B,,2 z2 | %135
 G,,2 z2 D,2 D,,2 | G,,G,/G,,/ G,,G,, G,,2 !fermata!z2 |] %137
[K:C][M:2/2] (3C,C,C,(3C,C,C, (3C,CG,(3E,G,E, | (3C,C,C,(3C,C,C, (3C,CA,(3F,C,F, | %139
 (3C,C,C,(3C,C,C, (3C,CG,(3E,G,E, | (3G,,G,,G,,(3G,,G,,G,, (3G,,B,,D,(3G,D,B,, | %141
 (3C,C,C,(3C,C,C, (3C,C,C,(3C,C,C, | (3B,,B,,B,,(3B,,B,,B,, (3B,,B,,B,,(3B,,B,,B,, | %143
 (3A,,A,,A,,(3A,,A,,A,, (3D,D,D,(3D,D,D, | (3G,,G,,G,,(3G,,G,,G,, (3G,,G,,G,,(3G,,G,,G,, | %145
 (3G,,G,,G,,(3G,,G,,G,, (3G,,G,,G,,(3G,,G,,G,, | (3G,,G,,G,,(3G,,G,,G,, (3G,,G,,G,,(3G,,G,,G,, | %147
 (3G,,^F,G,(3=F,E,F, (3E,E,E,(3E,E,E, | F,2 F,2 F,,2 z2 | G,,2 G,,2 G,,2 G,,2 | %150
[K:tenor] C3 _E/D/ C>_B,^G,>=G, | ^F,3 C/B,/ =B,=A,G,=F, |[K:bass] E,2 F,2 G,2 G,,2 | %153
 (3C,C,C,(3C,C,C, (3C,C,C,(3C,C,C, | (3C,C,C,(3C,C,C, (3C,C,C,(3C,C,C, | C,,4 !fermata!z4 | %156
 C2 C2 B,2 B,2 | A,2 A,2 E,2 E,2 | F,2 F,2 F,2 G,2 | E,2 C,2 C2 C2- | C2 C2 C2 B,2- | %161
 B,2 B,2 A,2 D,2 | G,2 G,2 G,2 G,2 | C,2 C,2 C,2 ^C,2 | D,2 (3D,D,D, D,2 (3D,D,D, | %165
 D,2 (3D,D,D, D,2 (3D,D,D, | D,2 D,2 D,2 D,2 | G,,2 G,2 C2 ^F,2 | B,2 E,2 A,2 D,2 | %169
 G,2 ^F,2 E,2 D,C, | B,,4 ^F,2 F,2 | G,2 G,,2 C,2 D,2 | %172
 (3G,,G,,G,,(3G,,G,,G,, (3G,,B,,D,(3G,D,B,, | (3G,,G,,G,,(3G,,G,,G,, (3G,,B,,D,(3G,D,B,, | %174
 (3G,,G,,G,,(3G,,G,,G,, (3G,,B,,D,(3G,D,B,, | (3A,,A,,A,,(3A,,A,,A,, (3D,D,D,(3D,D,D, | %176
 G,,2 G,2 C2 ^F,2 | B,2 E,2 A,2 D,2 | G,2 z2 C,2 C,2 | D,2 (3D,D,D, (3D,D,D,(3D,D,D, | %180
 (3D,D,D,(3D,D,D, (3D,D,D,(3D,D,D, | (3D,D,D,(3D,D,D, (3D,D,D,(3D,D,D, | %182
 (3D,D,D,(3D,D,D, (3D,D,D,(3D,D,D, |[K:tenor] (3DD^C(3D[K:bass]D,D, D,2 !fermata!z2 | %184
 G,2 G,2 (3G,G,G, G,2 | (3G,G,G, G,2 (3D,D,D, D,2 | G,,2 z2 C2 C2 | B,2 B,2 A,2 D,2 | %188
 G,2 (3G,G,G, G,2 (3G,_A,G, | (3=F,_E,D, C,2 C2 B,2 | C2 z2 F,4 | _B,4 _E,4 | _A,4 D,4 | %193
 G,,2 =F,2 _E,2 C,2 | =B,,2 G,,2 C,2 G,2 | _A,4 G,2 (3=F,=E,F, | C,2 B,,2 A,,2 (3G,,G,F, | %197
 C,2 F,2 G,2 G,,2 | A,,8 | G,,2 z2 G,2 G,,2 | C,2 E,2 F,2 G,2 | (3C,C,C,(3C,C,C, (3C,C,C,(3C,C,C, | %202
 (3C,C,C,(3C,C,C, (3C,C,C,(3C,C,C, | (3C,C,C,(3C,C,C, (3C,C,C,(3C,C,C, | %204
 (3G,,G,,G,,(3G,,G,,G,, (3G,,G,,G,,(3G,,G,,G,, | C,2 E,2 F,2 G,2 |[K:tenor] C3 _E/D/ C>_B,_A,>G, | %207
 ^F,3 D/C/ =B,>=A,G,>=F, | E,2 F,2 G,2[K:bass] D,2 | (3C,C,C,(3C,C,C, (3C,C,C,(3C,C,C, | %210
 (3C,C,C,(3C,C,C, (3C,C,C,(3C,C,C, | C,4 !fermata!z4 |][K:G][M:2/4] z G, B,C | DD, B,,C, | %214
 A,,2 F,2 | G,G,, G,2- | G,G, F,F, | G,G,, B,,G,, | G,2 G,2 | F,2 F,2 | G,2 ^G,2 | A,2 z A, | %222
 A,,2 A,2 | D,2 F,2 | G,2 A,2 | D,D B,G, | D,2 D,2 | D,D D,D | D,2 D,2 | D,D F,2 | E,4 | %231
 D,E, F,D, | G,G,, G,B,, | C,E, D,D,, | E,4 | D,E, F,D, | G,G,, G,B,, | C,E, D,C, | B,,2 G,F, | %239
 E,2 D,C, | B,,C, D,F, | G,B,, C,D, | G,,2 G,F, | E,2 D,C, | B,,C, D,F, | G,B,, C,D, | %246
 G,,2 G,/F,/G,/G,,/ | C,/D,/E,/C,/ D,D,, | G,,2 z2 | z4 | z4 | z4 | z4 | z4 | z4 | z4 | z4 | z4 | %258
 z4 | z4 | z4 | z4 | z4 | z4 | z4 | z4 | z4 | z4 | z4 | z4 | z4 | z4 | z4 | z4 | z4 | z4 | z4 | %277
 z4 | z4 | z4 | z4 | z4 | z4 | z4 | z4 | z4 | z4 | z4 | z4 | z4 | z4 | z4 | z4 | z4 | z4 | z4 | %296
 D,E, F,G, | A,A, F,G, | E,2 ^C,2 | D,2 D2- | D2 ^C2 | D2 D,D | ^CC DD | ^C2 D2 | ^C2 D2 | ^C2 D2 | %306
 ^C2 z A, | B,2 E,2 | A,2 A,2 | D,^C, D,E, | A,,2 (A,/=G,/F,/E,/) | D,E, F,G, | A,A, F,F, | %313
 G,G, G,G, | E,E, E,E, | E,E, =C,C, | D,D, F,F, | G,G, G,G, | F,F, F,F, | E,2 D,2 | %320
 A,,2 A,/G,/F,/E,/ | ^D,2 D,2 | !courtesy!^D,2 z2 | ^D,2 D,2 | E,2 B,,2 | E,2 B,/A,/G,/F,/ | %326
 E,2 D,2 | C,2 C,2 | C,2 z2 | C,2 C,2 | D,2 A,2 | D,E, F,D, | G,2 ^C,2 | F,2 B,,2 | E,2 ^E,2 | %335
 F,2 z2 | F,2 z2 | ^A,,2 A,,2 | !courtesy!^A,,2 z2 | F,2 z2 | F,2 z2 | ^A,,2 A,,2 | %342
 !courtesy!^A,,2 A,,2 | B,,D, E,F, | B,,2 B,A, | G,2 ^CB, | ^A,A, A,A, | B,2 F,2 | B,,2 ^A,,2 | %349
 B,,2 F,2 | B,,2 G,2 | E,2 F,2 | B,,2 D/=C/B,/=A,/ | G,G,, B,,^C, | D,D B,C | A,2 F,2 | %356
 G,G,, G,2- | G,2 F,2 | G,G, F,F, | G,G, G,G, | =F,F, F,F, | ^D,D, D,D, | D,D, D,D, | C,2 _D,2 | %364
 D,D D,D | D,D D,D | D,D D,D | D,D D,D | D,D D,D | D,2 !fermata!z2 | z4 | z4 | z4 | z4 | z4 | z4 | %376
 z4 | z4 | z4 | z4 | z4 | z4 | z4 | z4 | z4 | z4 | z4 | z2 D/C/B,/A,/ | G,2 G,2 | C2 z C | F,4 | %391
 B,2 z B, | E,4 | A,2 z A, | D,4 | G,2 B,,^C, | D,2 D/C/B,/A,/ | B,2 z B, | C2 B,2 | A,4 | %400
 B,2 A,2 | G,4 | A,2 G,2 | F,4 | G,2 z ^C, | D,D _B,G, | CA, DC | _B,2 z2 | z4 | z4 | z4 | z4 | %412
 z4 | z4 | z4 | z4 | z4 | z4 | z4 | z4 | z4 | z4 | z4 | z4 | z4 | z4 | z2 G,2- | G,2 F,2 | %428
 G,G,, G,2- | G,2 F,2 | G,2 G,,2 | C,2 F,2 | B,,2 E,2 | A,,2 D,2 | G,,2 G,F, | E,2 D,C, | %436
 B,,C, D,F, | G,G,, E,D,, | G,,2 G,F, | E,2 D,C, | B,,C, D,F, | G,G,, D,D,, | G,,2 G,/A,/B,/G,/ | %443
 C,/D,/E,/C,/ D,D,, | G,,2 z G, | G,,2 z G, | !fermata!G,,4 |] %447

